Yaru++/status/24/insync-feed.svg

<svg height="24" width="24" xmlns="http://www.w3.org/2000/svg"><path d="m3.4960938 13.494141c-.943972.011255-1.6341863-.022344-2.1992188.289062-.2921961.166673-.51529945.433387-.62890625.75-.12381191.328664-.16796875.719894-.16796875 1.212891v4.501953c0 .493747.04415684.884226.16796875 1.212891.12381191.329414.34601485.593921.62890625.75.5650325.312156 1.2552468.277806 2.1992188.289062h.15625l2.0996093 1.5 2.1015625-1.5h1.6503906c.9439718-.011256 1.6349368.022343 2.1992188-.289062.292196-.166674.515299-.433387.628906-.75.123062-.328665.167969-.719895.167969-1.212891v-4.501953c0-.493747-.044907-.884227-.167969-1.212891-.113607-.316613-.33671-.583327-.628906-.75-.565033-.312156-1.255247-.277807-2.1992188-.289062z" fill-opacity=".2" stroke-width=".750375" transform="matrix(1.00000002822 0 0 1.00000002822 .0000218809 .00000064304)"/><g fill="#fff" transform="matrix(1.3332542 0 0 1.3332542 13.03698 -.390095)"><path d="m1.05 14.01h1.957v3.913h-1.957z"/><circle cx="2.027" cy="11.723" r=".978"/><path d="m1.7003776 5.5271194c-3.233954.0000003-5.869154 2.6351863-5.86914 5.8691406v.652344h1.304687v-.652344c-.00001-2.5290309 2.035422-4.5644528 4.564453-4.5644531h.652344v-1.3046875z"/><path d="m1.7003776 8.1364944c-1.7932078 0-3.259773 1.4665576-3.259765 3.2597656v.652344h1.3046871v-.652344c-.0000044-1.088285.8667935-1.9550781 1.9550779-1.9550781h.652344v-1.3046875z"/><path d="m1.7003776 2.9177444c-4.674684.0000006-8.478512 3.8038309-8.478515 8.4785156v.652344h1.304687v-.652344c.000003-3.9697635 3.204065-7.1738276 7.173828-7.1738281h.652344v-1.3046875z"/><path d="m1.05 14.01h1.957v3.913h-1.957z"/><circle cx="2.027" cy="11.723" r=".978"/></g><path d="m3.4960938 12.994141c-.943972.011255-1.6341863-.022344-2.1992188.289062-.2921961.166673-.51529945.433387-.62890625.75-.12381191.328664-.16796875.719894-.16796875 1.212891v4.501953c0 .493747.04415684.884226.16796875 1.212891.12381191.329414.34601485.593921.62890625.75.5650325.312156 1.2552468.277806 2.1992188.289062h.15625l2.0996093 1.5 2.1015625-1.5h1.6503906c.9439718-.011256 1.6349368.022343 2.1992188-.289062.292196-.166674.515299-.433387.628906-.75.123062-.328665.167969-.719895.167969-1.212891v-4.501953c0-.493747-.044907-.884227-.167969-1.212891-.113607-.316613-.33671-.583327-.628906-.75-.565033-.312156-1.255247-.277807-2.1992188-.289062z" fill="#3eb34f" stroke-width=".750375" transform="matrix(1.00000002822 0 0 1.00000002822 .0000218809 -.00000185661)"/><g fill="#fff"><path d="m2.0008314 14.4955v1.50075h9.0044986v-1.50075z"/><path d="m2.0008314 16.74662v1.50075h7.5037001v-1.50075z"/></g></svg>

<?xml version="1.0" encoding="UTF-8" standalone="no"?>
<svg
   xmlns:dc="http://purl.org/dc/elements/1.1/"
   xmlns:cc="http://creativecommons.org/ns#"
   xmlns:rdf="http://www.w3.org/1999/02/22-rdf-syntax-ns#"
   xmlns:svg="http://www.w3.org/2000/svg"
   xmlns="http://www.w3.org/2000/svg"
   xmlns:sodipodi="http://sodipodi.sourceforge.net/DTD/sodipodi-0.dtd"
   xmlns:inkscape="http://www.inkscape.org/namespaces/inkscape"
   width="24"
   height="24"
   version="1.1"
   id="svg32"
   sodipodi:docname="insync-feed.svg"
   inkscape:version="0.92.4 (5da689c313, 2019-01-14)">
  <metadata
     id="metadata36">
    <rdf:RDF>
      <cc:Work
         rdf:about="">
        <dc:format>image/svg+xml</dc:format>
        <dc:type
           rdf:resource="http://purl.org/dc/dcmitype/StillImage" />
      </cc:Work>
    </rdf:RDF>
  </metadata>
  <sodipodi:namedview
     pagecolor="#ffffff"
     bordercolor="#666666"
     borderopacity="1"
     objecttolerance="10"
     gridtolerance="10"
     guidetolerance="10"
     inkscape:pageopacity="0"
     inkscape:pageshadow="2"
     inkscape:window-width="1920"
     inkscape:window-height="1016"
     id="namedview34"
     showgrid="false"
     inkscape:zoom="40.926828"
     inkscape:cx="8.7730361"
     inkscape:cy="10.25"
     inkscape:window-x="0"
     inkscape:window-y="27"
     inkscape:window-maximized="1"
     inkscape:current-layer="svg32" />
  <defs
     id="defs4">
    <style
       type="text/css"
       id="style2">
   .ColorScheme-Text { color:#5c616c; } .ColorScheme-Highlight { color:#5294e2; } .ColorScheme-ButtonBackground { color:#d3dae3; }
  </style>
  </defs>
  <g
     id="g867"
     style="font-weight:400;fill:#000000;fill-opacity:0.2"
     transform="matrix(0.75037519,0,0,0.75037519,-954.72762,258.11706)"
     font-weight="400">
    <path
       style="overflow:visible;fill:#000000;fill-opacity:0.2;stroke-width:0.75037521"
       d="M 3.4960938 13.494141 C 2.5521218 13.505396 1.8619075 13.471797 1.296875 13.783203 C 1.0046789 13.949876 0.78157555 14.21659 0.66796875 14.533203 C 0.54415684 14.861867 0.5 15.253097 0.5 15.746094 L 0.5 20.248047 C 0.5 20.741794 0.54415684 21.132273 0.66796875 21.460938 C 0.79178066 21.790352 1.0139836 22.054859 1.296875 22.210938 C 1.8619075 22.523094 2.5521218 22.488744 3.4960938 22.5 L 3.6523438 22.5 L 5.7519531 24 L 7.8535156 22.5 L 9.5039062 22.5 C 10.447878 22.488744 11.138843 22.522343 11.703125 22.210938 C 11.995321 22.044264 12.218424 21.777551 12.332031 21.460938 C 12.455093 21.132273 12.5 20.741043 12.5 20.248047 L 12.5 15.746094 C 12.5 15.252347 12.455093 14.861867 12.332031 14.533203 C 12.218424 14.21659 11.995321 13.949876 11.703125 13.783203 C 11.138092 13.471047 10.447878 13.505396 9.5039062 13.494141 L 3.4960938 13.494141 z "
       transform="matrix(1.3326667,0,0,1.3326667,1272.3337,-343.984)"
       id="path863" />
  </g>
  <g
     transform="matrix(1.3332542 0 0 1.3332542 13.03698 -.39009491)"
     style="fill:#ffffff"
     id="g20">
    <rect
       width="1.957"
       height="3.913"
       x="1.05"
       y="14.01"
       style="fill:#ffffff"
       id="rect6" />
    <circle
       cx="2.027"
       cy="11.723"
       r=".978"
       style="fill:#ffffff"
       id="circle8" />
    <path
       d="m1.7003776 5.5271194c-3.233954 3e-7 -5.869154 2.6351863-5.86914 5.8691406v0.652344h1.304687v-0.652344c-1e-5 -2.5290309 2.035422-4.5644528 4.564453-4.5644531h0.652344v-1.3046875z"
       style="fill:#ffffff"
       id="path10" />
    <path
       d="m1.7003776 8.1364944c-1.7932078 0-3.259773 1.4665576-3.259765 3.2597656v0.652344h1.3046871v-0.652344c-4.4e-6 -1.088285 0.8667935-1.9550781 1.9550779-1.9550781h0.652344v-1.3046875z"
       style="fill:#ffffff"
       id="path12" />
    <path
       d="m1.7003776 2.9177444c-4.674684 6e-7 -8.478512 3.8038309-8.478515 8.4785156v0.652344h1.304687v-0.652344c3e-6 -3.9697635 3.204065-7.1738276 7.173828-7.1738281h0.652344v-1.3046875z"
       style="fill:#ffffff"
       id="path14" />
    <rect
       width="1.957"
       height="3.913"
       x="1.05"
       y="14.01"
       style="fill:#ffffff"
       id="rect16" />
    <circle
       cx="2.027"
       cy="11.723"
       r=".978"
       style="fill:#ffffff"
       id="circle18" />
  </g>
  <g
     font-weight="400"
     transform="matrix(.75037519 0 0 .75037519 -954.72762 257.61706)"
     style="fill:#3eb34f;fill-opacity:1"
     id="g26">
    <path
       style="overflow:visible;fill:#3eb34f;fill-opacity:1;stroke-width:0.75037521"
       d="M 3.4960938 12.994141 C 2.5521218 13.005396 1.8619075 12.971797 1.296875 13.283203 C 1.0046789 13.449876 0.78157555 13.71659 0.66796875 14.033203 C 0.54415684 14.361867 0.5 14.753097 0.5 15.246094 L 0.5 19.748047 C 0.5 20.241794 0.54415684 20.632273 0.66796875 20.960938 C 0.79178066 21.290352 1.0139836 21.554859 1.296875 21.710938 C 1.8619075 22.023094 2.5521218 21.988744 3.4960938 22 L 3.6523438 22 L 5.7519531 23.5 L 7.8535156 22 L 9.5039062 22 C 10.447878 21.988744 11.138843 22.022343 11.703125 21.710938 C 11.995321 21.544264 12.218424 21.277551 12.332031 20.960938 C 12.455093 20.632273 12.5 20.241043 12.5 19.748047 L 12.5 15.246094 C 12.5 14.752347 12.455093 14.361867 12.332031 14.033203 C 12.218424 13.71659 11.995321 13.449876 11.703125 13.283203 C 11.138092 12.971047 10.447878 13.005396 9.5039062 12.994141 L 3.4960938 12.994141 z "
       transform="matrix(1.3326667,0,0,1.3326667,1272.3337,-343.31767)"
       id="path22" />
  </g>
  <path
     d="m2.0008314 14.4955v1.50075h9.0044986v-1.50075z"
     style="fill:#ffffff"
     id="path28" />
  <path
     d="m2.0008314 16.74662v1.50075h7.5037001v-1.50075h-7.5037001"
     style="fill:#ffffff"
     id="path30" />
</svg>
